X:1
T:Extended-Extended Bach-like Cello Piece
C:in the style of J.S. Bach
M:3/4
L:1/8
Q:1/4=100
K:G

% A (original)
|: G B d G B d | e d c B A G | G B d G B d | g f e d E D :|

% B (original)
|: D F A d f a | g f e d c B | A c E c E A | d c B A G G :|

% C (original)
|: E G B E G B | a g f e d c | E G B E G B | a g f e D C :|

% D (original)
|: D F A D F A | g f e d c B | D F A D F A | g f e d C B :|

% E (original)
|: G B d g b g | a f e d c B | G B d g b g | e d c B A G :|

% F (original)
|: G B d G B d | e f g a f e | d B G A B d | g f e d E D :|

% G (new, G-centered variation)
|: G d B g b g | a f e d c B | G B d G B d | g f e d E D :|

% H (A minor flavor)
|: A c e a e c | d c B A G A | A c e a e c | d c B A G G :|

% I (B minor flavor)
|: B d f b f d | g f e d c B | B d f b f d | a g f e d c :|

% J (C major flavor)
|: C E G e c E | d c B A G A | C E G e c E | d c B A G G :|

% K (D chord focus)
|: D F A d f a | g f e d c B | D F A d f a | g f e d E D :|

% L (E minor focus)
|: E G B e g b | a f e d c B | E G B e g b | a f e d c B :|

% M (Return to G variation)
|: G B d g b g | a f e d c B | G B d g b g | e d c B A G :|

% N (Variation on B section)
|: D F A d f a | g f e d c B | A c e a c e | d c B A G G :|

% O (Variation on C section)
|: E G B g b g | a f e d c B | E G B g b g | a f e d E D :|

% P (Variation on D section)
|: D F A d f a | g e f d c B | D F A d f a | g f e d C B :|

% Q (Variation on E section)
|: G B d G B d | e d c B A G | G B d g b g | a f e d E D :|

% R (Variation on F section, final)
|: G B d g b g | a g f e d c | E G B e g b | a f e d E D :|

